X:2
T:Bourree croisee
Z:Jack Campin, 2014
F:http://www.campin.me.uk/Music/YoupNannetteD.abc
S:p13, p1000202.jpg
M:3/8
L:1/16
Q:1/4=120
K:G
D2|G2B2d2|d4 cB|AGAcBA|B2G2\
D2|G2B2d2|d4 cB|AGAcBA|G4:|
D2|G2F2E2|D4 FA|AGAcBA|B2G2\
D2|G2F2E2|D4 FG|AGAcBA|G4:|

